Icons/com_google_android_apps_docs_editors_sheets.svg

<svg viewBox="0 0 48 48"><defs><linearGradient id="linearGradient3764" x1="1" x2="47" gradientUnits="userSpaceOnUse" gradientTransform="translate(-48.000001,0.00221467)"><stop stop-color="#5ec044" stop-opacity="1"/><stop offset="1" stop-color="#6bc553" stop-opacity="1"/></linearGradient><clipPath id="clipPath-355641476"><g transform="translate(0,-1004.3622)"><rect rx="4" y="1005.36" x="1" height="46" width="46" fill="#1890d0"/></g></clipPath><clipPath id="clipPath-382867778"><g transform="translate(0,-1004.3622)"><rect rx="4" y="1005.36" x="1" height="46" width="46" fill="#1890d0"/></g></clipPath></defs><g><path d="m 1 43 l 0 0.25 c 0 2.216 1.784 4 4 4 l 38 0 c 2.216 0 4 -1.784 4 -4 l 0 -0.25 c 0 2.216 -1.784 4 -4 4 l -38 0 c -2.216 0 -4 -1.784 -4 -4 z m 0 0.5 l 0 0.5 c 0 2.216 1.784 4 4 4 l 38 0 c 2.216 0 4 -1.784 4 -4 l 0 -0.5 c 0 2.216 -1.784 4 -4 4 l -38 0 c -2.216 0 -4 -1.784 -4 -4 z" opacity="0.02"/><path d="m 1 43.25 l 0 0.25 c 0 2.216 1.784 4 4 4 l 38 0 c 2.216 0 4 -1.784 4 -4 l 0 -0.25 c 0 2.216 -1.784 4 -4 4 l -38 0 c -2.216 0 -4 -1.784 -4 -4 z" opacity="0.05"/><path d="m 1 43 l 0 0.25 c 0 2.216 1.784 4 4 4 l 38 0 c 2.216 0 4 -1.784 4 -4 l 0 -0.25 c 0 2.216 -1.784 4 -4 4 l -38 0 c -2.216 0 -4 -1.784 -4 -4 z" opacity="0.1"/></g><g><rect width="46" height="46" x="-47" y="1" rx="4" transform="matrix(0,-1,1,0,0,0)" fill="url(#linearGradient3764)" fill-opacity="1"/></g><g><g clip-path="url(#clipPath-355641476)"><g opacity="0.1"><!-- color: #6bc553 --><g><path d="m 34 14 c 0 7.04 0 13.898 0 20 c -7.02 0 -13.93 0 -20 0 c 0 -7.04 0 -13.895 0 -20 c 6.941 0 14.05 0 20 0 m -2 2 l -9 0 l 0 4 l 9 0 m -11 -4 l -5 0 l 0 4 l 5 0 m 11 2 l -9 0 l 0 4 l 9 0 m -11 -4 l -5 0 l 0 4 l 5 0 m 11 2 l -9 0 l 0 4 l 9 0 m -11 -4 l -5 0 l 0 4 l 5 0 m 0 -4" fill="#000"/></g></g></g></g><g><g clip-path="url(#clipPath-382867778)"><g transform="translate(0,-1)"><!-- color: #6bc553 --><g><path d="m 34 14 c 0 7.04 0 13.898 0 20 c -7.02 0 -13.93 0 -20 0 c 0 -7.04 0 -13.895 0 -20 c 6.941 0 14.05 0 20 0 m -2 2 l -9 0 l 0 4 l 9 0 m -11 -4 l -5 0 l 0 4 l 5 0 m 11 2 l -9 0 l 0 4 l 9 0 m -11 -4 l -5 0 l 0 4 l 5 0 m 11 2 l -9 0 l 0 4 l 9 0 m -11 -4 l -5 0 l 0 4 l 5 0 m 0 -4" fill="#f9f9f9"/></g></g></g></g><g><g transform="translate(0,-1004.3622)"><path d="m 1 1043.36 0 4 c 0 2.216 1.784 4 4 4 l 38 0 c 2.216 0 4 -1.784 4 -4 l 0 -4 c 0 2.216 -1.784 4 -4 4 l -38 0 c -2.216 0 -4 -1.784 -4 -4 z" opacity="0.1"/></g></g></svg>

<svg viewBox="0 0 48 48" xmlns:xlink="http://www.w3.org/1999/xlink">
 <defs>
  <linearGradient id="0">
   <stop stop-opacity="0"/>
   <stop offset="1"/>
  </linearGradient>
  <linearGradient xlink:href="#0" id="1" gradientUnits="userSpaceOnUse" gradientTransform="translate(4e-7,-48)" y1="47" x2="0" y2="1"/>
  <clipPath id="2">
   <g transform="translate(0,-1004.3622)">
    <rect rx="4" y="1005.36" x="1" height="46" width="46" fill="#1890d0"/>
   </g>
  </clipPath>
  <clipPath id="3">
   <g transform="translate(0,-1004.3622)">
    <rect rx="4" y="1005.36" x="1" height="46" width="46" fill="#1890d0"/>
   </g>
  </clipPath>
 </defs>
 <g>
  <g transform="translate(0,-1004.3622)">
   <path d="m 5,1006.3622 c -2.216,0 -4,1.784 -4,4 l 0,37.25 c 0,2.216 1.784,4 4,4 l 38,0 c 2.216,0 4,-1.784 4,-4 l 0,-37.25 c 0,-2.216 -1.784,-4 -4,-4 l -38,0 z m -4,41.5 0,0.5 c 0,2.216 1.784,4 4,4 l 38,0 c 2.216,0 4,-1.784 4,-4 l 0,-0.5 c 0,2.216 -1.784,4 -4,4 l -38,0 c -2.216,0 -4,-1.784 -4,-4 z" opacity="0.02"/>
   <path d="m 1,1047.6122 0,0.25 c 0,2.216 1.784,4 4,4 l 38,0 c 2.216,0 4,-1.784 4,-4 l 0,-0.25 c 0,2.216 -1.784,4 -4,4 l -38,0 c -2.216,0 -4,-1.784 -4,-4 z" opacity="0.05"/>
   <rect width="46" height="46" x="1" y="1005.61" rx="4" opacity="0.1"/>
  </g>
 </g>
 <g>
  <g transform="translate(0,-1004.3622)">
   <rect rx="4" y="1005.36" x="1" height="46" width="46" fill="#6bc553"/>
  </g>
 </g>
 <g>
  <rect transform="scale(1,-1)" width="46" height="46" x="1" y="-46.998" rx="4" opacity="0.1" fill="url(#1)"/>
 </g>
 <g>
  <g clip-path="url(#2)">
   <g opacity="0.1">
    <g>
     <path d="M 34 14 C 34 21.039062 34 27.898438 34 34 C 26.976562 34 20.070312 34 14 34 C 14 26.960938 14 20.105469 14 14 C 20.941406 14 28.046875 14 34 14 Z M 32 16 L 23 16 L 23 20 L 32 20 Z M 21 16 L 16 16 L 16 20 L 21 20 Z M 32 22 L 23 22 L 23 26 L 32 26 Z M 21 22 L 16 22 L 16 26 L 21 26 Z M 32 28 L 23 28 L 23 32 L 32 32 Z M 21 28 L 16 28 L 16 32 L 21 32 Z M 21 28 "/>
    </g>
   </g>
  </g>
 </g>
 <g>
  <g clip-path="url(#3)">
   <g transform="translate(0,-1)">
    <g>
     <path d="M 34 14 C 34 21.039062 34 27.898438 34 34 C 26.976562 34 20.070312 34 14 34 C 14 26.960938 14 20.105469 14 14 C 20.941406 14 28.046875 14 34 14 Z M 32 16 L 23 16 L 23 20 L 32 20 Z M 21 16 L 16 16 L 16 20 L 21 20 Z M 32 22 L 23 22 L 23 26 L 32 26 Z M 21 22 L 16 22 L 16 26 L 21 26 Z M 32 28 L 23 28 L 23 32 L 32 32 Z M 21 28 L 16 28 L 16 32 L 21 32 Z M 21 28 " fill="#f9f9f9"/>
    </g>
   </g>
  </g>
 </g>
 <g>
  <g transform="translate(0,-1004.3622)">
   <path d="m 1,1043.3622 0,4 c 0,2.216 1.784,4 4,4 l 38,0 c 2.216,0 4,-1.784 4,-4 l 0,-4 c 0,2.216 -1.784,4 -4,4 l -38,0 c -2.216,0 -4,-1.784 -4,-4 z" opacity="0.1"/>
  </g>
 </g>
</svg>
